!!!OTL: Bunte Blumen
!!!ARE: Europa, Mitteleuropa, Deutschland
!!!SCT: A0144
!!!YEM: Copyright 1995, estate of Helmut Schaffrath.
**kern
*ICvox
*Ivox
*M6/4
*k[f#c#g#]
*A:
{4a
=1
2a
4a
2a
4g#
=2
2.e
2b}
{4cc#
=3
2b
4a
2g#
4f#
=4
[2.e
2e]}
{4a
=5
2a
4a
2a
4g#
=6
2.e
2b}
{4cc#
=7
2b
4a
2g#
4f#
=8
[2.e
2e]}
{4e
=9
2a
4a
2g#
4e
=10
2.a
2b}
{4b
=11
2b
4b
2cc#
4cc#
=12
2b
4a
2b}
{4b
=13
2ee
4dd
2cc#
4b
=14
2.a
2dd}
{4b
=15
2cc#
4b
2a
4g#
=16
[2.a
2a]}
==
!!!AGN: Romanze, Ballade, Lied
!! "Nicht unpassend waere die Weise vom "alten Mai"(s. geistl. Lieder)
!!    zu diesem Blumen und Mailust-Liede. Ich habe sie deshalb in modernen
!!    Noten und im Tanzrhythmus oben beigesetzt."
!!!ONB: ESAC (Essen Associative Code) Database: ALTDEU
!!!AMT: compound duple
!!!AIN: vox
!!!EED: Helmut Schaffrath
!!!EEV: 1.0
*-
